outputs/icons/action/calendar_yearly_sharp.svg

<svg xmlns="http://www.w3.org/2000/svg" width="1200" height="1200" fill="none"><g fill="#000" clip-path="url(#a)"><path d="M450 950H350V850h100zM650 950H550V850h100zM850 950H750V850h100zM450 800H350V700h100zM650 800H550V700h100zM850 800H750V700h100zM450 650H350V550h100zM650 650H550V550h100zM850 650H750V550h100z"/><path fill-rule="evenodd" d="M400 200h400V100h100v100h150v900H150l.489-900H300V100h100zm-150 800h700V450H250z"/></g><defs><clipPath id="a"><path fill="#fff" d="M0 0h1200v1200H0z"/></clipPath></defs></svg>

<svg width="1200" height="1200" viewBox="0 0 1200 1200" fill="none" xmlns="http://www.w3.org/2000/svg"><g clip-path="url(#clip0_787_1866)"><path fill-rule="evenodd" d="M800 200V100H900V200H1050V1100H150L150.5 200H300V100H400V200H800ZM250 1000H950V450H250V1000ZM450 650V550H350V650H450ZM550 550H650V650H550V550ZM850 650V550H750V650H850ZM450 700V800H350V700H450ZM650 700H550V800H650V700ZM850 700V800H750V700H850ZM450 950V850H350V950H450ZM550 850H650V950H550V850ZM850 950V850H750V950H850Z" fill="#1D1E23"/></g><defs><clipPath id="clip0_787_1866"><path width="24" fill="white" d="M0 0H1200V1200H0V0z"/></clipPath></defs></svg>
